packages/ffe-icons/icons/open/500/sm/comment.svg

<svg xmlns="http://www.w3.org/2000/svg" height="20" viewBox="0 -960 960 960" width="20"><path d="M276-384h408q15.3 0 25.65-10.289 10.35-10.29 10.35-25.5Q720-435 709.65-445.5 699.3-456 684-456H276q-15.3 0-25.65 10.289-10.35 10.29-10.35 25.5Q240-405 250.35-394.5 260.7-384 276-384Zm0-132h408q15.3 0 25.65-10.289 10.35-10.29 10.35-25.5Q720-567 709.65-577.5 699.3-588 684-588H276q-15.3 0-25.65 10.289-10.35 10.29-10.35 25.5Q240-537 250.35-526.5 260.7-516 276-516Zm0-132h408q15.3 0 25.65-10.289 10.35-10.29 10.35-25.5Q720-699 709.65-709.5 699.3-720 684-720H276q-15.3 0-25.65 10.289-10.35 10.29-10.35 25.5Q240-669 250.35-658.5 260.7-648 276-648ZM170.87-231.869q-34.483 0-58.742-24.259T87.869-314.87v-474.26q0-34.483 24.259-58.742t58.742-24.259h618.26q34.483 0 58.742 24.259t24.259 58.742v601.108q0 27.685-25.468 38.451-25.467 10.767-45.215-8.981l-73.317-73.317H170.87Zm587.261-83.001 30.999 31.239V-789.13H170.87v474.26h587.261Zm-587.261 0v-474.26 474.26Z"/></svg>

<svg xmlns="http://www.w3.org/2000/svg" height="20" viewBox="0 -960 960 960" width="20"><path d="M276-384h408q15.3 0 25.65-10.29Q720-404.58 720-419.79t-10.35-25.71Q699.3-456 684-456H276q-15.3 0-25.65 10.29Q240-435.42 240-420.21t10.35 25.71Q260.7-384 276-384Zm0-132h408q15.3 0 25.65-10.29Q720-536.58 720-551.79t-10.35-25.71Q699.3-588 684-588H276q-15.3 0-25.65 10.29Q240-567.42 240-552.21t10.35 25.71Q260.7-516 276-516Zm0-132h408q15.3 0 25.65-10.29Q720-668.58 720-683.79t-10.35-25.71Q699.3-720 684-720H276q-15.3 0-25.65 10.29Q240-699.42 240-684.21t10.35 25.71Q260.7-648 276-648ZM170.87-231.87q-34.48 0-58.74-24.26-24.26-24.26-24.26-58.74v-474.26q0-34.48 24.26-58.74 24.26-24.26 58.74-24.26h618.26q34.48 0 58.74 24.26 24.26 24.26 24.26 58.74v601.11q0 27.68-25.47 38.45-25.46 10.77-45.21-8.98l-73.32-73.32H170.87Zm587.26-83 31 31.24v-505.5H170.87v474.26h587.26Zm-587.26 0v-474.26 474.26Z"/></svg>
